X:23
T:B023-  Bara Faustus' Dream
S:via BBBM, From Forbes' 'Cantus', 1662
Q:1/4=120
L:1/4
M:3/4
K:Dm
D2G|^F2G|A3/2 G/2^F|G3|\
B2B|A2A|G3/2 B/2 A/2G/2|^FC2:|\
|:A2B|c2A|BF2|D3|B,D2|EG2|^FA2|\
GB2|A2G|G^F2|(G3|G3):|]

